src/assets/icons/letters,fancy,sans-q.svg

<svg width="48" height="48" viewBox="0 0 48 48" fill="none" xmlns="http://www.w3.org/2000/svg">
<g clip-path="url(#clip0_86:297)">
<path d="M36.6168 23.4545C36.6168 13.9375 30.7077 8.51136 22.9947 8.51136C15.239 8.51136 9.37251 13.9375 9.37251 23.4545C9.37251 32.929 15.239 38.3977 22.9947 38.3977C24.8129 38.3977 26.5316 38.0994 28.0941 37.5028L30.4379 40.3864H36.1765L32.0146 35.1591C34.8555 32.6165 36.6168 28.6392 36.6168 23.4545ZM20.864 27.8864L24.5856 32.8011C24.0884 32.9006 23.5487 32.9574 22.9947 32.9574C18.5202 32.9574 15.6083 29.6193 15.6083 23.4545C15.6083 17.2898 18.5202 13.9517 22.9947 13.9517C27.4549 13.9517 30.381 17.2898 30.381 23.4545C30.381 26.6222 29.5998 29.0511 28.2504 30.6562L26.0913 27.8864H20.864Z" fill="black"/>
</g>
<defs>
<clipPath id="clip0_86:297">
<rect width="48" height="48" fill="white"/>
</clipPath>
</defs>
</svg>

<svg xmlns="http://www.w3.org/2000/svg" width="48" height="48" fill="none" viewBox="0 0 48 48">
  <g clip-path="url(#clip0_86:297)">
    <path fill="#000" d="M36.617 23.454c0-9.517-5.91-14.943-13.622-14.943-7.756 0-13.622 5.427-13.622 14.944 0 9.474 5.866 14.943 13.622 14.943 1.818 0 3.537-.299 5.1-.895l2.343 2.883h5.738l-4.161-5.227c2.84-2.542 4.602-6.52 4.602-11.704zm-15.753 4.432l3.722 4.915a8.16 8.16 0 01-1.591.156c-4.475 0-7.387-3.338-7.387-9.503 0-6.164 2.912-9.502 7.387-9.502 4.46 0 7.386 3.338 7.386 9.502 0 3.168-.781 5.597-2.13 7.202l-2.16-2.77h-5.227z"/>
  </g>
  <defs>
    <clipPath id="clip0_86:297">
      <path fill="#fff" d="M0 0h48v48H0z"/>
    </clipPath>
  </defs>
</svg>
